icons/verify.svg

<svg width="24" height="24" viewBox="0 0 24 24" fill="none" xmlns="http://www.w3.org/2000/svg">
<path fill-rule="evenodd" clip-rule="evenodd" d="M13.7884 4.56923C12.7355 5.48611 11.2054 5.5386 10.1959 4.55615C9.33758 3.85411 8.10963 4.409 8.04874 5.44404L8.04784 5.45936L8.04631 5.47463C7.91105 6.82728 6.83393 7.90674 5.48226 8.04552C4.34347 8.18319 3.88466 9.4004 4.57133 10.2141C5.42481 11.212 5.38485 12.7036 4.60005 13.75L4.58682 13.7676L4.57259 13.7845C3.84568 14.6435 4.40109 15.8899 5.44411 15.9513L5.45943 15.9522L5.4747 15.9537C6.82738 16.089 7.90676 17.1662 8.04554 18.5178C8.18319 19.6565 9.40037 20.1154 10.2141 19.4288C11.212 18.5752 12.7036 18.6152 13.75 19.4L13.7677 19.4132L13.7845 19.4275C14.6436 20.1544 15.89 19.599 15.9514 18.556L15.9523 18.5406L15.9538 18.5254C16.0891 17.1727 17.1663 16.0933 18.5179 15.9545C19.6566 15.8168 20.1155 14.5997 19.4288 13.786C18.5753 12.788 18.6152 11.2964 19.4 10.25L19.4133 10.2324L19.4275 10.2155C20.1544 9.35644 19.599 8.11007 18.556 8.04872L18.5407 8.04781L18.5255 8.04629C17.1728 7.91102 16.0933 6.83385 15.9545 5.48219C15.817 4.34456 14.6021 3.88551 13.7884 4.56923ZM12.8156 3.42747C14.6006 1.91707 17.1794 3.05581 17.4449 5.31237L17.4465 5.32536L17.4463 5.32537C17.5104 5.96598 18.0232 6.4825 18.6622 6.55242C20.9976 6.70343 22.0341 9.42733 20.5891 11.1648C20.1861 11.7154 20.2279 12.4134 20.5695 12.8119L20.5726 12.8155L20.5726 12.8156C22.083 14.6006 20.9443 17.1794 18.6877 17.4449L18.6747 17.4464L18.6747 17.4463C18.0341 17.5103 17.5176 18.0231 17.4477 18.6621C17.2966 20.9975 14.5727 22.034 12.8353 20.5891C12.2847 20.1861 11.5866 20.2279 11.1882 20.5694L11.1845 20.5726L11.1845 20.5725C9.39949 22.0829 6.82065 20.9442 6.55517 18.6876L6.55364 18.6746L6.55376 18.6746C6.48969 18.034 5.97697 17.5175 5.338 17.4476C3.00258 17.2966 1.96602 14.5727 3.41098 12.8353C3.81396 12.2846 3.77217 11.5866 3.4306 11.1881L3.4275 11.1845L3.42751 11.1845C1.91709 9.39942 3.05591 6.82062 5.31244 6.55515L5.32543 6.55362L5.32544 6.55373C5.96604 6.48967 6.48252 5.97693 6.55244 5.33793C6.70403 2.99363 9.44806 1.95816 11.1845 3.42747L11.2083 3.44762L11.2304 3.46968C11.6195 3.85883 12.2684 3.90611 12.8062 3.43557L12.8155 3.42739L12.8156 3.42747Z" fill="black"/>
</svg>

<svg xmlns="http://www.w3.org/2000/svg" fill="none" viewBox="0 0 24 24">
  <path fill="#000" fill-rule="evenodd" d="M13.788 4.57c-1.053.916-2.583.969-3.592-.014-.858-.702-2.086-.147-2.147.888l-.001.015-.002.016a2.88 2.88 0 0 1-2.564 2.57c-1.139.138-1.597 1.355-.91 2.17.853.997.813 2.489.028 3.535l-.013.018-.014.016c-.727.86-.172 2.106.871 2.167l.015.001.016.002a2.88 2.88 0 0 1 2.57 2.564c.138 1.139 1.355 1.597 2.17.91.997-.853 2.489-.813 3.535-.028l.018.013.016.014c.86.727 2.106.172 2.167-.871l.001-.015.002-.016a2.88 2.88 0 0 1 2.564-2.57c1.139-.138 1.598-1.355.91-2.169-.853-.998-.813-2.49-.028-3.536l.013-.018.014-.016c.727-.86.172-2.106-.871-2.167l-.015-.001-.015-.002a2.88 2.88 0 0 1-2.572-2.564c-.137-1.137-1.352-1.596-2.166-.913Zm-.972-1.143c1.785-1.51 4.363-.371 4.629 1.885l.002.013a1.38 1.38 0 0 0 1.215 1.227c2.336.151 3.372 2.875 1.927 4.613-.403.55-.361 1.248-.02 1.647l.004.004c1.51 1.785.371 4.363-1.885 4.629l-.013.001a1.38 1.38 0 0 0-1.227 1.216c-.151 2.335-2.875 3.372-4.613 1.927-.55-.403-1.248-.361-1.647-.02l-.004.004c-1.785 1.51-4.363.371-4.629-1.885l-.001-.013a1.38 1.38 0 0 0-1.216-1.227c-2.335-.151-3.372-2.875-1.927-4.613.403-.55.361-1.248.02-1.647l-.003-.004C1.918 9.4 3.056 6.821 5.312 6.556l.013-.001a1.38 1.38 0 0 0 1.227-1.216c.152-2.344 2.896-3.38 4.633-1.91l.023.02.022.022c.39.389 1.038.436 1.576-.034l.01-.009Z" clip-rule="evenodd"/>
</svg>
